X:1
T:Title
%%score { ( 1 4 ) | ( 2 3 ) }
L:1/8
M:4/4
K:Bb
V:1 treble nm="Grand Piano"
V:4 treble 
V:2 bass 
V:3 bass 
V:1
 z4 z2[Q:1/4=100] FA | [DB]2 [Fd]2 [DF]2 [DF][DF] | [EG]2 [EB]2 [EG][DF][B,D][CE] | %3
 [DF]2 [DF]2 A2 B2 | c6 FA | [DB]2 [Fd]2 [DF]2 [DF]2 | [EG]2 [EB]2 [EG][DF][F,DF][F,DF] | %7
 [CA]2 [CA]B c2 A2 | [DB]6 [DF][DF] | [Fd]2 [Fd]2 c2 FF | e2 e2 dcdc | %11
 B2 G2 [B,DF]2[K:bass] [F,B,D]2 | [F,A,C]4[K:treble] [EF]2 FA | B2 d2 f2 dB | c2 B2 GBAG | %15
 F2 AB c3 [DB] |[M:3/4] [DB]6 |[M:1/4] B,D |[M:4/4] F6 z2 | d6 z2 | [GB]3 [Gc] [GB]2 [EG]2 | %21
[M:3/4] F6 |[M:1/4] F2 |[M:4/4] c6 z2 | c6 z2 | B2 BB c2 [=Ed]2 |[M:3/4] c6 |[M:1/4] B,D | %28
[M:4/4] F4 z2 B2 | d6 z2 | [GB]3 [Gc] [GB]2 [EG]2 |[M:3/4] F6 |[M:1/4] [DF][DF] | %33
[M:9/8] [EG]2 [EG]- [EG] [GB]2- [GB][FA][EG] | [DF]2 [DF]- [DF] [DB]2- [DB][FB][Gc] | %35
[M:19/16] d/-d/-d-<dBc/-c/-c/-c/-c/-c-<c[DB] |[M:4/4] [DB]6 z2 |] %37
V:2
 z4 z2 [F,A,][F,CE] | [B,,B,]2 [B,,B,]2 [B,,B,]2 [B,,B,][B,,B,] | %2
 [E,B,]2 [E,G,]2 [B,,B,][B,,B,][B,,F,][B,,F,] | [B,,B,]2 [B,,B,]2 [F,C]2 [F,B,D]2 | %4
 [F,A,E]6 [F,A,E][F,CE] | [B,,B,]2 [B,,B,]2 [B,,B,]2 [B,,B,]2 | %6
 [E,B,]2 [E,G,]2 [B,,B,][B,,B,]B,,B,, | F,2 z D [F,E]2 [F,C]2 | [B,,F,]6 [B,,B,][B,,B,] | %9
 [B,,B,]2 [D,B,]2 [F,A,F]2 [F,A,]2 | [F,A,F]2 [A,CF]2 [B,F][K:bass][F,A,E][D,^F,D][D,F,D] | %11
 [G,D]2 [E,B,E]2 B,,2 B,,2 | z4 A,2 [F,A,E][F,CE] | [B,D]2 [B,F]2 [B,DF]2[K:bass] B,-[D,B,] | %14
 [E,G,E]2 [E,G,E]2 [E,B,E][E,G,E][=E,A,_D][E,B,D] | [F,B,D]2 [F,CE][F,DF] [F,A,E]3 [B,,B,] | %16
[M:3/4] [B,,B,]6 |[M:1/4] z2 |[M:4/4] z2 [B,,F,][B,,F,] [B,,F,]2 z2 | %19
 z2 [B,,B,][B,,B,] [B,,B,]2 [D,B,][D,B,] | [E,E]3 [E,E] [E,E]2 [E,B,]2 | %21
[M:3/4] [B,,B,]2 [B,,B,][B,,B,] [B,,B,]2 |[M:1/4] z2 |[M:4/4] z2 [F,A,][F,A,] [F,A,]2 z2 | %24
 z2 [F,A,][F,A,] [F,A,]2 [F,A,E]2 | [G,D]2 [G,D][G,D] [F,A,F]2 [C,B,]2 | %26
[M:3/4] [F,A,F]2 [F,A,][F,A,] F,E, |[M:1/4] D,C, | %28
[M:4/4] B,,2 [B,,F,][B,,F,] [B,,F,]2 [B,,F,][B,,F,] | %29
 [B,,B,]2 [B,,B,][B,,B,] [B,,B,]2 [B,,B,][D,B,] | [E,B,]3 [E,E] [E,E]2 [E,B,]2 | %31
[M:3/4] [B,,B,]2 [B,,B,][B,,B,] [B,,B,]2 |[M:1/4] [B,,B,][B,,B,] | %33
[M:9/8] [E,B,]2 [E,B,]- [E,B,] [E,E]2- [E,E][E,E][E,B,] | %34
 [B,,B,]2 [D,B,]- [D,B,] [G,B,]2- [G,B,][D,B,][E,B,] | %35
[M:19/16] [F,B,F]/-[F,B,F]/-[F,B,F]-<[F,B,F][F,B,D][F,,F,A,E]/-[F,,F,A,E]/-[F,,F,A,E]/-[F,,F,A,E]/-[F,,F,A,E]/-[F,,F,A,E]-<[F,,F,A,E][B,,F,] | %36
[M:4/4] [B,,F,]6 z2 |] %37
V:3
 x8 | x8 | x8 | x8 | x8 | x8 | x8 | z2 F,2 z4 | x8 | x8 | x5[K:bass] x3 | x8 | F,,6 z2 | %13
 z4 z2[K:bass] .B,,2 | x8 | x8 |[M:3/4] x6 |[M:1/4] x2 |[M:4/4] x8 | x8 | x8 |[M:3/4] x6 | %22
[M:1/4] x2 |[M:4/4] x8 | x8 | x8 |[M:3/4] x6 |[M:1/4] x2 |[M:4/4] x8 | x8 | x8 |[M:3/4] x6 | %32
[M:1/4] x2 |[M:9/8] x9 | x9 |[M:19/16] x19/2 |[M:4/4] x8 |] %37
V:4
 x8 | x8 | x8 | x8 | x8 | x8 | x8 | x8 | x8 | x8 | x8 | x6[K:bass] x2 | x4[K:treble] x4 | %13
 z4 z2 F2 | x8 | x8 |[M:3/4] x6 |[M:1/4] x2 |[M:4/4] z2 DD D2 B2 | z2 FF F2 [FB][FB] | x8 | %21
[M:3/4] D2 DD D2 |[M:1/4] x2 |[M:4/4] z2 EE E2 FF | z2 EE E2 F2 | x8 |[M:3/4] z2 FF [A,F]2 | %27
[M:1/4] x2 |[M:4/4] z2 DD D2 DD | F2 FF F2 [FB][_AB] | x8 |[M:3/4] D2 DD D2 |[M:1/4] x2 | %33
[M:9/8] x9 | x9 |[M:19/16] x19/2 |[M:4/4] x8 |] %37

